X:35
%%NRChange 2026-02-05
T:K2
C:Harald Haugaard
L:1/16
M:2/4
K:Gm
%%staffsep 70
#
(!downbow!–A2- |: "Gm"B2)D2 D2B2 | "(tacet)"Bcd2 cde2 | "Gm"d2B2 B2d2 | {d}}e"Db9/Ab"dcB A(B(3cBA) |
w: | | | |
"Gm"{A}B2D2 D2B2 | "(tacet)"Bcd2 "D7add11"cde2 | "D7add11"dcB2 cBA2 |1 "D7add11"[G4G,4] [G2G,2] :|2 "D7add11"[G4G,4] [G2G,2] z2 |
|: "Gm"(g2d2) d2(a2 | "(tacet)"d2)d2 "Gm"(b2d2) | "Gm"(d2g2) "(tacet)"g2b2 | "Cm/A"a(g^fe) "D7add11"d(cBA) | 
("Gm"B2D2) ("Gm/A"c2E2) | ("Gm/Bb"d2""F2) "Cm7add9"{d}e4 | "Cm7add9"dcB2 "D7add11"cBA2 | "Gm"[G4G,4] [G2G,2] z2 :|

